packages/admin/admin-icons/icons/grid.svg

<svg xmlns="http://www.w3.org/2000/svg" width="16" height="16" viewBox="0 0 16 16"><path fill="#242424" fill-rule="evenodd" d="M6.5,9 C6.77614237,9 7,9.22385763 7,9.5 L7,15.5 C7,15.7761424 6.77614237,16 6.5,16 L0.5,16 C0.223857625,16 4.68833933e-16,15.7761424 0,15.5 L0,9.5 C-8.93288388e-17,9.22385763 0.223857625,9 0.5,9 L6.5,9 Z M15.5,9 C15.7761424,9 16,9.22385763 16,9.5 L16,15.5 C16,15.7761424 15.7761424,16 15.5,16 L9.5,16 C9.22385763,16 9,15.7761424 9,15.5 L9,9.5 C9,9.22385763 9.22385763,9 9.5,9 L15.5,9 Z M6,10 L1,10 L1,15 L6,15 L6,10 Z M15,10 L10,10 L10,15 L15,15 L15,10 Z M6.5,0 C6.77614237,3.84289714e-16 7,0.223857625 7,0.5 L7,6.5 C7,6.77614237 6.77614237,7 6.5,7 L0.5,7 C0.223857625,7 4.68833933e-16,6.77614237 0,6.5 L0,0.5 C-8.93288388e-17,0.223857625 0.223857625,-4.7846199e-18 0.5,0 L6.5,0 Z M15.5,0 C15.7761424,3.84289714e-16 16,0.223857625 16,0.5 L16,6.5 C16,6.77614237 15.7761424,7 15.5,7 L9.5,7 C9.22385763,7 9,6.77614237 9,6.5 L9,0.5 C9,0.223857625 9.22385763,-4.7846199e-18 9.5,0 L15.5,0 Z M6,1 L1,1 L1,6 L6,6 L6,1 Z M15,1 L10,1 L10,6 L15,6 L15,1 Z"/></svg>

<svg width="16" height="16" fill="none" viewBox="0 0 16 16">
  <path fill="#242424" fill-rule="evenodd" d="M6.5 0a.5.5 0 0 1 .5.5v6a.5.5 0 0 1-.5.5h-6a.5.5 0 0 1-.5-.5v-6A.5.5 0 0 1 .5 0h6ZM6 1H1v5h5V1Zm.5 8a.5.5 0 0 1 .5.5v6a.5.5 0 0 1-.5.5h-6a.5.5 0 0 1-.5-.5v-6A.5.5 0 0 1 .5 9h6ZM6 10H1v5h5v-5Zm10-.5a.5.5 0 0 0-.5-.5h-6a.5.5 0 0 0-.5.5v6a.5.5 0 0 0 .5.5h6a.5.5 0 0 0 .5-.5v-6Zm-6 .5h5v5h-5v-5Zm5.5-10a.5.5 0 0 1 .5.5v6a.5.5 0 0 1-.5.5h-6a.5.5 0 0 1-.5-.5v-6a.5.5 0 0 1 .5-.5h6ZM15 1h-5v5h5V1Z" clip-rule="evenodd"/>
</svg>
